X:19001
T:Xiraldilla (CT 191)
R:Xiraldilla
C:Tradicional
S:Msica Tradicional Asturiana, (C) Tello & Tito. Asturies, 2001.
S:http://pagina.de/MusTradAst <telloytito@asturies.org>
N:Xiraldilla, transcrita en La Vega, ayuntamiento de Riosa.
O:La Vega (Riosa)
A:Asturies
Z:Cancioneru de Torner 191
M:3/8
L:1/8
Q:3/8=88
W:La nia se est peinando
W:a la entrada de Madrid;
W:los peines eran de oro,
W:las peinetas de marfil.
W:
W:Los peines eran de oro,
W:las peinetas de marfil.
W:Ai! morena de mi vida,
W:vivir no puedo sin t.
K:G
G|c2 c|cdc|BBG|
c2 c|cdc|B2 A|
B2 B|BcB|AAG|
A2 A|AGF|G2 :||
